X:1
T: Miss McReady of Perston's Favourite
M: C|
B: James Campbell's Collection 1798
Z: source from Highland Music Trust, chords by Gary Whaley
L: 1/8
K:A
d [|: "A" cA"E"dB "A"ec"D"fd | "A" (c/B/A)ec "E"fBBd |\
"A"cA"E"dB "A"ec"D"fd | "A" (c/d/e)"E"Bd" A"cAA :|]
E [|: "D" (FE)"A"AE "E"BE"A"cE | "D"(dc)"D/D#"BA "E"(GB)ED |\
"A"(CE)Ac "E"(EG)Bd | "A"(c/d/e)"E"Bd "A"cAAE |
|"D"(FE)"A"AE "E"BE"A"cE | "D"(dc)"D/D#"BA "E"GBED  |\
"A"(CE)Ac "E"(Bd)gd | "A"ca"E"Bd "A"cAA :|]
